X:1
T:Title
%%score { ( 1 3 ) | ( 2 4 ) }
L:1/8
M:4/4
K:G
V:1 treble nm="Grand Piano"
V:3 treble 
V:2 treble 
V:4 treble 
V:1
 z4 z2[Q:1/4=100] D2 | B3 A G2 B2 | [EA]3 [EG] [CE]2 [EG]2 | D2 G2 B2 G2 | [FA]6 [FA]2 | %5
 B3 A G2 B2 | [EA]3 [EG] [CE]2 [EG]2 | D2 G2 [GB]2 [FA]2 |[M:3/4] G6 |[M:4/4] d>d d>e d>c B>A | %10
[M:7/8] G2 B2 B3 |[M:1/8] G |[M:4/4] F2 [FA]2 [FA]3 F | z4 [Fd]4 | d>d d>e d>c B>A | %15
[M:7/8] G2 B2 B3 |[M:1/8] d |[M:4/4] [Fd]3 [Fc] [FB]2 [DA]2 |[M:3/4] [B,DG]6 |] %19
V:2
 z4 z2 [G,B,]2 | [G,DG]3 [G,CG] [G,B,]2 [G,DG]2 | [C,C]3 [C,C] [C,G,]2 [C,C]2 | %3
 [G,B,]2[K:treble] [G,B,D]2 [G,DG]2[K:bass] [G,B,]2 | [D,D]6 [D,D]2 | %5
 [G,DG]3 [G,CG] [G,B,]2 [G,DG]2 | [C,C]3 [C,C] [C,G,]2 [C,C]2 | [G,B,]2 [G,B,D]2 [D,D]2 [D,C]2 | %8
[M:3/4] [G,B,]6 |[M:4/4][K:treble] [G,B,G]>[G,B,G] [G,B,G]>[G,CG] [G,B,G]>[G,EG] [G,DG]>[G,CD] | %10
[M:7/8] [G,B,D]2 [G,DG]2 [G,DG]3 |[M:1/8][K:bass] [G,B,D] |[M:4/4] [D,A,D]2 [D,D]2 [D,C]3 [D,A,D] | %13
 [G,B,D]2 [G,DG]2[K:bass] D2 z2 | [G,B,G]>[G,B,G] [G,B,G]>[G,CG] [G,B,G]>[G,EG] [G,DG]>[G,CD] | %15
[M:7/8] [G,B,D]2 [G,DG]2 [G,DG]3 |[M:1/8] [G,B,G] |[M:4/4][K:bass] [D,A,]3 [D,D] [D,D]2 [D,C]2 | %18
[M:3/4] [G,,G,]6 |] %19
V:3
 x8 | x8 | x8 | x8 | x8 | x8 | x8 | x8 |[M:3/4] x6 |[M:4/4] x8 |[M:7/8] x7 |[M:1/8] x |[M:4/4] x8 | %13
 G2 B2 z2 C2 | x8 |[M:7/8] x7 |[M:1/8] x |[M:4/4] x8 |[M:3/4] x6 |] %19
V:4
 x8 | x8 | x8 | x2[K:treble] x4[K:bass] x2 | x8 | x8 | x8 | x8 |[M:3/4] x6 |[M:4/4][K:treble] x8 | %10
[M:7/8] x7 |[M:1/8][K:bass] x |[M:4/4] x8 | z4[K:bass] D,4 | x8 |[M:7/8] x7 |[M:1/8] x | %17
[M:4/4][K:bass] x8 |[M:3/4] x6 |] %19

